X:227
T: FERNE DIR O FERNE WANK ICH WIE IM TRAUM
N: B0714A
O: Europa, Mitteleuropa, Deutschland; Frankreich
R: Klage - Lied
M: 3/8
L: 1/16
K: G
 | G3AGA | B4A2 |
B3AGB | A4z2 |
G3AGA | B4A2 |
G3AGA | B4A2 |
A3GAB | G4G2 |
A3BGA | B6 |
A3GAB | G4A2 |
B3ABA | G4z2

@@@ Tune index: 2445
